img/icones/diferenciais/pecas-icone.svg

<svg width="48" height="48" viewBox="0 0 48 48" fill="none" xmlns="http://www.w3.org/2000/svg">
<path d="M34.8201 13.18L30.0001 11L34.8201 8.82L37.0001 4L39.1801 8.82L44.0001 11L39.1801 13.18L37.0001 18L34.8201 13.18ZM42.5601 25.44L41.0001 22L39.4401 25.44L36.0001 27L39.4401 28.56L41.0001 32L42.5601 28.56L46.0001 27L42.5601 25.44ZM32.4801 28.74L36.3601 31.68L31.3601 40.34L26.8801 38.46C26.4801 38.72 26.0401 38.98 25.6001 39.2L25.0001 44H15.0001L14.4001 39.18C13.9601 38.96 13.5401 38.72 13.1201 38.44L8.64014 40.32L3.64014 31.66L7.52014 28.72C7.50014 28.5 7.50014 28.24 7.50014 28C7.50014 27.76 7.50014 27.5 7.52014 27.26L3.64014 24.32L8.64014 15.66L13.1201 17.54C13.5201 17.28 13.9601 17.02 14.4001 16.8L15.0001 12H25.0001L25.6001 16.82C26.0401 17.04 26.4601 17.28 26.8801 17.56L31.3601 15.68L36.3601 24.34L32.4801 27.28C32.5001 27.52 32.5001 27.76 32.5001 28.02C32.5001 28.28 32.5001 28.5 32.4801 28.74ZM26.0001 28C26.0001 24.68 23.3201 22 20.0001 22C16.6801 22 14.0001 24.68 14.0001 28C14.0001 31.32 16.6801 34 20.0001 34C23.3201 34 26.0001 31.32 26.0001 28Z" fill="url(#paint0_linear_434_475)"/>
<defs>
<linearGradient id="paint0_linear_434_475" x1="24.8201" y1="4.8" x2="32.8372" y2="41.4461" gradientUnits="userSpaceOnUse">
<stop stop-color="#345EC2"/>
<stop offset="1" stop-color="#113896"/>
</linearGradient>
</defs>
</svg>

<svg width="48" height="48" fill="none" xmlns="http://www.w3.org/2000/svg"><path d="M34.82 13.18 30 11l4.82-2.18L37 4l2.18 4.82L44 11l-4.82 2.18L37 18l-2.18-4.82Zm7.74 12.26L41 22l-1.56 3.44L36 27l3.44 1.56L41 32l1.56-3.44L46 27l-3.44-1.56Zm-10.08 3.3 3.88 2.94-5 8.66-4.48-1.88c-.4.26-.84.52-1.28.74L25 44H15l-.6-4.82c-.44-.22-.86-.46-1.28-.74l-4.48 1.88-5-8.66 3.88-2.94c-.02-.22-.02-.48-.02-.72s0-.5.02-.74l-3.88-2.94 5-8.66 4.48 1.88c.4-.26.84-.52 1.28-.74L15 12h10l.6 4.82c.44.22.86.46 1.28.74l4.48-1.88 5 8.66-3.88 2.94c.02.24.02.48.02.74s0 .48-.02.72ZM26 28c0-3.32-2.68-6-6-6s-6 2.68-6 6 2.68 6 6 6 6-2.68 6-6Z" fill="url(#a)"/><defs><linearGradient id="a" x1="24.82" y1="4.8" x2="32.837" y2="41.446" gradientUnits="userSpaceOnUse"><stop stop-color="#345EC2"/><stop offset="1" stop-color="#113896"/></linearGradient></defs></svg>
